; generated by Slic3r Prusa Edition 1.41.3+win64 on 2019-04-30 at 14:18:31

; 

; external perimeters extrusion width = 0.45mm
; perimeters extrusion width = 0.45mm
; infill extrusion width = 0.45mm
; solid infill extrusion width = 0.45mm
; top infill extrusion width = 0.40mm
; support material extrusion width = 0.35mm
; first layer extrusion width = 0.42mm

M73 P0 R40
M73 Q0 S40
M201 X1000 Y1000 Z1000 E5000 ; sets maximum accelerations, mm/sec^2
M203 X200 Y200 Z12 E120 ; sets maximum feedrates, mm/sec
M204 P1250 R1250 T1250 ; sets acceleration (P, T) and retract acceleration (R), mm/sec^2
M205 X8.00 Y8.00 Z0.40 E1.50 ; sets the jerk limits, mm/sec
M205 S0 T0 ; sets the minimum extruding and travel feed rate, mm/sec
M107
M115 U3.6.0 ; tell printer latest fw version
M83  ; extruder relative mode
M104 S215 ; set extruder temp
M140 S60 ; set bed temp
M190 S60 ; wait for bed temp
M109 S215 ; wait for extruder temp
G28 W ; home all without mesh bed level
G80 ; mesh bed leveling
G1 Y-3.0 F1000.0 ; go outside print area
G92 E0.0
G1 X60.0 E9.0  F1000.0 ; intro line
M73 Q0 S40
M73 P0 R40
G1 X100.0 E12.5  F1000.0 ; intro line
G92 E0.0
M221 S95
M900 K30 ; Filament gcode
G21 ; set units to millimeters
G90 ; use absolute coordinates
M83 ; use relative distances for extrusion
;BEFORE_LAYER_CHANGE
G92 E0.0
;0.2


G1 E-0.80000 F2100.00000
G1 Z0.600 F10800.000
;AFTER_LAYER_CHANGE
;0.2
G1 X123.736 Y74.809
G1 Z0.200
G1 E0.80000 F2100.00000
M204 S1000
G1 F1200
G1 X132.152 Y74.769 E0.26389
G1 X150.575 Y77.152 E0.58246
G1 X151.184 Y77.376 E0.02032
G1 X151.701 Y77.767 E0.02032
G1 X152.080 Y78.293 E0.02032
G1 X152.288 Y78.906 E0.02032
G1 X152.323 Y174.336 E2.99214
G1 X152.182 Y175.069 E0.02338
G1 X151.802 Y175.714 E0.02349
G1 X151.226 Y176.193 E0.02349
G1 X150.522 Y176.450 E0.02349
G1 X141.945 Y176.476 E0.26894
G1 X123.841 Y174.124 E0.57240
G1 X123.191 Y173.924 E0.02134
G1 X122.633 Y173.533 E0.02134
G1 X122.223 Y172.990 E0.02134
G1 X121.999 Y172.347 E0.02134
G1 X121.976 Y76.732 E2.99797
G1 X122.156 Y76.060 E0.02179
G1 X122.538 Y75.480 E0.02179
G1 X123.083 Y75.048 E0.02179
G1 X123.680 Y74.830 E0.01991
; PURGING FINISHED
G1 F8640
G1 X126.971 Y74.806 E-0.76000
G1 E-0.04000 F2100.00000
G1 Z0.800 F10800.000
G1 X125.040 Y96.971
G1 Z0.200
G1 E0.80000 F2100.00000
G1 F1200
G1 X131.264 Y96.971 E0.19515
G1 X131.264 Y151.945 E1.72368
G1 X125.040 Y151.945 E0.19515
G1 X125.040 Y97.031 E1.72180
G1 X125.417 Y97.348 F10800.000
G1 F1200
G1 X130.887 Y97.348 E0.17151
G1 X130.887 Y151.568 E1.70003
G1 X125.417 Y151.568 E0.17151
G1 X125.417 Y97.408 E1.69815
G1 X125.404 Y96.948 F10800.000
G1 F8640
G1 X128.709 Y97.372 E-0.76000
G1 E-0.04000 F2100.00000
G1 Z0.800 F10800.000
G1 X124.739 Y77.545
G1 Z0.200
G1 E0.80000 F2100.00000
G1 F1200
G1 X131.565 Y77.545 E0.21402
G1 X131.565 Y171.371 E2.94184
G1 X124.739 Y171.371 E0.21402
G1 X124.739 Y77.605 E2.93996
G1 X124.362 Y77.168 F10800.000
G1 F1200
G1 X131.942 Y77.168 E0.23767
G1 X131.942 Y171.748 E2.96549
G1 X124.362 Y171.748 E0.23767
G1 X124.362 Y77.228 E2.96361
G1 X124.714 Y77.358 F10800.000
G1 F8640
G1 X127.654 Y77.202 E-0.76000
G1 E-0.04000 F2100.00000
G1 Z0.800 F10800.000
G1 X131.452 Y78.429
G1 Z0.200
G1 E0.80000 F2100.00000
G1 F1200
G1 X130.851 Y77.828 E0.02695
G1 X130.312 Y77.828 E0.01709
G1 X131.282 Y78.798 E0.04351
G1 X131.282 Y79.337 E0.01709
G1 X129.773 Y77.828 E0.06767
G1 X129.234 Y77.828 E0.01709
G1 X131.282 Y79.876 E0.09183
G1 X131.282 Y80.415 E0.01709
G1 X128.695 Y77.828 E0.11599
G1 X128.156 Y77.828 E0.01709
G1 X131.282 Y80.954 E0.14015
G1 X131.282 Y81.493 E0.01709
G1 X127.617 Y77.828 E0.16432
G1 X127.077 Y77.828 E0.01709
G1 X131.282 Y82.033 E0.18848
G1 X131.282 Y82.572 E0.01709
G1 X126.538 Y77.828 E0.21264
G1 X125.999 Y77.828 E0.01709
G1 X131.282 Y83.111 E0.23680
G1 X131.282 Y83.650 E0.01709
G1 X125.460 Y77.828 E0.26096
G1 X125.022 Y77.828 E0.01389
G1 X125.022 Y77.929 E0.00320
G1 X131.282 Y84.189 E0.28060
G1 X131.282 Y84.728 E0.01709
G1 X125.022 Y78.468 E0.28060
G1 X125.022 Y79.007 E0.01709
G1 X131.282 Y85.267 E0.28060
G1 X131.282 Y85.806 E0.01709
G1 X125.022 Y79.546 E0.28060
G1 X125.022 Y80.085 E0.01709
G1 X131.282 Y86.345 E0.28060
G1 X131.282 Y86.884 E0.01709
G1 X125.022 Y80.624 E0.28060
G1 X125.022 Y81.163 E0.01709
G1 X131.282 Y87.423 E0.28060
G1 X131.282 Y87.962 E0.01709
G1 X125.022 Y81.702 E0.28060
G1 X125.022 Y82.241 E0.01709
G1 X131.282 Y88.501 E0.28060
G1 X131.282 Y89.040 E0.01709
G1 X125.022 Y82.780 E0.28060
G1 X125.022 Y83.319 E0.01709
G1 X131.282 Y89.579 E0.28060
G1 X131.282 Y90.118 E0.01709
G1 X125.022 Y83.858 E0.28060
G1 X125.022 Y84.397 E0.01709
G1 X131.282 Y90.657 E0.28060
G1 X131.282 Y91.196 E0.01709
G1 X125.022 Y84.936 E0.28060
M73 Q2 S39
G1 X125.022 Y85.475 E0.01709
G1 X131.282 Y91.736 E0.28060
M73 P2 R39
G1 X131.282 Y92.275 E0.01709
G1 X125.022 Y86.014 E0.28060
G1 X125.022 Y86.553 E0.01709
G1 X131.282 Y92.814 E0.28060
G1 X131.282 Y93.353 E0.01709
G1 X125.022 Y87.092 E0.28060
G1 X125.022 Y87.631 E0.01709
G1 X131.282 Y93.892 E0.28060
G1 X131.282 Y94.431 E0.01709
G1 X125.022 Y88.171 E0.28060
G1 X125.022 Y88.710 E0.01709
G1 X131.282 Y94.970 E0.28060
G1 X131.282 Y95.509 E0.01709
G1 X125.022 Y89.249 E0.28060
G1 X125.022 Y89.788 E0.01709
G1 X131.282 Y96.048 E0.28060
G1 X131.282 Y96.587 E0.01709
G1 X125.022 Y90.327 E0.28060
G1 X125.022 Y90.866 E0.01709
G1 X130.844 Y96.688 E0.26096
G1 X130.305 Y96.688 E0.01709
G1 X125.022 Y91.405 E0.23680
G1 X125.022 Y91.944 E0.01709
G1 X129.766 Y96.688 E0.21263
G1 X129.227 Y96.688 E0.01709
G1 X125.022 Y92.483 E0.18847
G1 X125.022 Y93.022 E0.01709
G1 X128.688 Y96.688 E0.16431
G1 X128.149 Y96.688 E0.01709
G1 X125.022 Y93.561 E0.14015
G1 X125.022 Y94.100 E0.01709
G1 X127.610 Y96.688 E0.11599
G1 X127.071 Y96.688 E0.01709
G1 X125.022 Y94.639 E0.09182
G1 X125.022 Y95.178 E0.01709
G1 X126.532 Y96.688 E0.06766
G1 X125.993 Y96.688 E0.01709
G1 X125.022 Y95.717 E0.04350
G1 X125.022 Y96.256 E0.01709
G1 X125.623 Y96.858 E0.02694
G1 F8640
G1 X125.022 Y96.256 E-0.19630
G1 X125.022 Y95.717 E-0.12447
G1 X125.993 Y96.688 E-0.31692
G1 X126.522 Y96.688 E-0.12231
G1 E-0.04000 F2100.00000
G1 Z0.800 F10800.000
G1 X131.452 Y152.829
G1 Z0.200
G1 E0.80000 F2100.00000
G1 F1200
G1 X130.851 Y152.228 E0.02695
G1 X130.312 Y152.228 E0.01709
G1 X131.282 Y153.198 E0.04351
G1 X131.282 Y153.737 E0.01709
G1 X129.773 Y152.228 E0.06767
G1 X129.234 Y152.228 E0.01709
G1 X131.282 Y154.276 E0.09183
G1 X131.282 Y154.815 E0.01709
G1 X128.695 Y152.228 E0.11599
G1 X128.156 Y152.228 E0.01709
G1 X131.282 Y155.354 E0.14015
G1 X131.282 Y155.893 E0.01709
G1 X127.617 Y152.228 E0.16432
G1 X127.077 Y152.228 E0.01709
G1 X131.282 Y156.433 E0.18848
G1 X131.282 Y156.972 E0.01709
G1 X126.538 Y152.228 E0.21264
G1 X125.999 Y152.228 E0.01709
G1 X131.282 Y157.511 E0.23680
G1 X131.282 Y158.050 E0.01709
G1 X125.460 Y152.228 E0.26096
G1 X125.022 Y152.228 E0.01389
G1 X125.022 Y152.329 E0.00320
G1 X131.282 Y158.589 E0.28060
G1 X131.282 Y159.128 E0.01709
G1 X125.022 Y152.868 E0.28060
G1 X125.022 Y153.407 E0.01709
G1 X131.282 Y159.667 E0.28060
G1 X131.282 Y160.206 E0.01709
G1 X125.022 Y153.946 E0.28060
G1 X125.022 Y154.485 E0.01709
G1 X131.282 Y160.745 E0.28060
G1 X131.282 Y161.284 E0.01709
G1 X125.022 Y155.024 E0.28060
G1 X125.022 Y155.563 E0.01709
G1 X131.282 Y161.823 E0.28060
G1 X131.282 Y162.362 E0.01709
G1 X125.022 Y156.102 E0.28060
G1 X125.022 Y156.641 E0.01709
G1 X131.282 Y162.901 E0.28060
G1 X131.282 Y163.440 E0.01709
G1 X125.022 Y157.180 E0.28060
G1 X125.022 Y157.719 E0.01709
G1 X131.282 Y163.979 E0.28060
G1 X131.282 Y164.518 E0.01709
G1 X125.022 Y158.258 E0.28060
G1 X125.022 Y158.797 E0.01709
G1 X131.282 Y165.057 E0.28060
G1 X131.282 Y165.596 E0.01709
G1 X125.022 Y159.336 E0.28060
G1 X125.022 Y159.875 E0.01709
G1 X131.282 Y166.136 E0.28060
G1 X131.282 Y166.675 E0.01709
G1 X125.022 Y160.414 E0.28060
G1 X125.022 Y160.953 E0.01709
G1 X131.282 Y167.214 E0.28060
G1 X131.282 Y167.753 E0.01709
G1 X125.022 Y161.492 E0.28060
G1 X125.022 Y162.032 E0.01709
G1 X131.282 Y168.292 E0.28060
G1 X131.282 Y168.831 E0.01709
G1 X125.022 Y162.571 E0.28060
G1 X125.022 Y163.110 E0.01709
G1 X131.282 Y169.370 E0.28060
G1 X131.282 Y169.909 E0.01709
G1 X125.022 Y163.649 E0.28060
G1 X125.022 Y164.188 E0.01709
G1 X131.282 Y170.448 E0.28060
G1 X131.282 Y170.987 E0.01709
G1 X125.022 Y164.727 E0.28060
G1 X125.022 Y165.266 E0.01709
G1 X130.844 Y171.088 E0.26096
G1 X130.305 Y171.088 E0.01709
G1 X125.022 Y165.805 E0.23680
G1 X125.022 Y166.344 E0.01709
G1 X129.766 Y171.088 E0.21263
G1 X129.227 Y171.088 E0.01709
G1 X125.022 Y166.883 E0.18847
G1 X125.022 Y167.422 E0.01709
G1 X128.688 Y171.088 E0.16431
G1 X128.149 Y171.088 E0.01709
G1 X125.022 Y167.961 E0.14015
G1 X125.022 Y168.500 E0.01709
G1 X127.610 Y171.088 E0.11599
G1 X127.071 Y171.088 E0.01709
G1 X125.022 Y169.039 E0.09182
G1 X125.022 Y169.578 E0.01709
G1 X126.532 Y171.088 E0.06766
G1 X125.993 Y171.088 E0.01709
G1 X125.022 Y170.117 E0.04350
G1 X125.022 Y170.656 E0.01709
G1 X125.623 Y171.258 E0.02694
G1 F8640
G1 X125.022 Y170.656 E-0.19630
G1 X125.022 Y170.117 E-0.12447
G1 X125.993 Y171.088 E-0.31692
G1 X126.522 Y171.088 E-0.12231
G1 E-0.04000 F2100.00000
G1 Z0.800 F10800.000
G1 X143.023 Y154.283
G1 Z0.200
G1 E0.80000 F2100.00000
G1 F1200
G1 X143.023 Y99.309 E1.72368
G1 X149.247 Y99.309 E0.19515
G1 X149.247 Y154.283 E1.72368
G1 X143.083 Y154.283 E0.19327
G1 X143.400 Y153.906 F10800.000
G1 F1200
G1 X143.400 Y99.686 E1.70003
G1 X148.870 Y99.686 E0.17151
G1 X148.870 Y153.906 E1.70003
G1 X143.460 Y153.906 E0.16963
G1 X143.047 Y154.094 F10800.000
G1 F8640
G1 X143.456 Y150.615 E-0.76000
G1 E-0.04000 F2100.00000
G1 Z0.800 F10800.000
G1 X142.722 Y173.709
G1 Z0.200
G1 E0.80000 F2100.00000
G1 F1200
G1 X142.722 Y79.883 E2.94184
G1 X149.548 Y79.883 E0.21402
G1 X149.548 Y173.709 E2.94184
G1 X142.782 Y173.709 E0.21214
G1 X142.345 Y174.086 F10800.000
G1 F1200
G1 X142.345 Y79.506 E2.96549
G1 X149.925 Y79.506 E0.23767
G1 X149.925 Y174.086 E2.96549
G1 X142.405 Y174.086 E0.23578
G1 X142.355 Y173.686 F10800.000
G1 F8640
G1 X142.403 Y170.795 E-0.76000
G1 E-0.04000 F2100.00000
G1 Z0.800 F10800.000
G1 X143.606 Y173.596
G1 Z0.200
G1 E0.80000 F2100.00000
M73 Q5 S38
G1 F1200
G1 X143.004 Y172.995 E0.02694
G1 X143.004 Y172.456 E0.01709
G1 X143.975 Y173.426 E0.04350
G1 X144.514 Y173.426 E0.01709
G1 X143.004 Y171.917 E0.06766
G1 X143.004 Y171.378 E0.01709
G1 X145.053 Y173.426 E0.09182
G1 X145.592 Y173.426 E0.01709
G1 X143.004 Y170.839 E0.11599
M73 P5 R38
G1 X143.004 Y170.299 E0.01709
G1 X146.131 Y173.426 E0.14015
G1 X146.670 Y173.426 E0.01709
G1 X143.004 Y169.760 E0.16431
G1 X143.004 Y169.221 E0.01709
G1 X147.209 Y173.426 E0.18847
G1 X147.748 Y173.426 E0.01709
G1 X143.004 Y168.682 E0.21263
G1 X143.004 Y168.143 E0.01709
G1 X148.287 Y173.426 E0.23680
G1 X148.826 Y173.426 E0.01709
G1 X143.004 Y167.604 E0.26096
G1 X143.004 Y167.065 E0.01709
G1 X149.265 Y173.325 E0.28060
G1 X149.265 Y172.786 E0.01709
G1 X143.004 Y166.526 E0.28060
G1 X143.004 Y165.987 E0.01709
G1 X149.265 Y172.247 E0.28060
G1 X149.265 Y171.708 E0.01709
G1 X143.004 Y165.448 E0.28060
G1 X143.004 Y164.909 E0.01709
G1 X149.265 Y171.169 E0.28060
G1 X149.265 Y170.630 E0.01709
G1 X143.004 Y164.370 E0.28060
G1 X143.004 Y163.831 E0.01709
G1 X149.265 Y170.091 E0.28060
G1 X149.265 Y169.552 E0.01709
G1 X143.004 Y163.292 E0.28060
G1 X143.004 Y162.753 E0.01709
G1 X149.265 Y169.013 E0.28060
G1 X149.265 Y168.474 E0.01709
G1 X143.004 Y162.214 E0.28060
G1 X143.004 Y161.675 E0.01709
G1 X149.265 Y167.935 E0.28060
G1 X149.265 Y167.396 E0.01709
G1 X143.004 Y161.136 E0.28060
G1 X143.004 Y160.596 E0.01709
G1 X149.265 Y166.857 E0.28060
G1 X149.265 Y166.318 E0.01709
G1 X143.004 Y160.057 E0.28060
G1 X143.004 Y159.518 E0.01709
G1 X149.265 Y165.779 E0.28060
G1 X149.265 Y165.240 E0.01709
G1 X143.004 Y158.979 E0.28060
G1 X143.004 Y158.440 E0.01709
G1 X149.265 Y164.701 E0.28060
G1 X149.265 Y164.161 E0.01709
G1 X143.004 Y157.901 E0.28060
G1 X143.004 Y157.362 E0.01709
G1 X149.265 Y163.622 E0.28060
G1 X149.265 Y163.083 E0.01709
G1 X143.004 Y156.823 E0.28060
G1 X143.004 Y156.284 E0.01709
G1 X149.265 Y162.544 E0.28060
G1 X149.265 Y162.005 E0.01709
G1 X143.004 Y155.745 E0.28060
G1 X143.004 Y155.206 E0.01709
G1 X149.265 Y161.466 E0.28060
G1 X149.265 Y160.927 E0.01709
G1 X143.004 Y154.667 E0.28060
G1 X143.004 Y154.566 E0.00320
G1 X143.443 Y154.566 E0.01389
G1 X149.265 Y160.388 E0.26096
G1 X149.265 Y159.849 E0.01709
G1 X143.982 Y154.566 E0.23680
G1 X144.521 Y154.566 E0.01709
G1 X149.265 Y159.310 E0.21264
G1 X149.265 Y158.771 E0.01709
G1 X145.060 Y154.566 E0.18848
G1 X145.599 Y154.566 E0.01709
G1 X149.265 Y158.232 E0.16432
G1 X149.265 Y157.693 E0.01709
G1 X146.138 Y154.566 E0.14015
G1 X146.677 Y154.566 E0.01709
G1 X149.265 Y157.154 E0.11599
G1 X149.265 Y156.615 E0.01709
G1 X147.216 Y154.566 E0.09183
G1 X147.755 Y154.566 E0.01709
G1 X149.265 Y156.076 E0.06767
G1 X149.265 Y155.537 E0.01709
G1 X148.294 Y154.566 E0.04351
G1 X148.833 Y154.566 E0.01709
G1 X149.434 Y155.167 E0.02695
G1 F8640
G1 X148.833 Y154.566 E-0.19634
G1 X148.294 Y154.566 E-0.12447
G1 X149.265 Y155.537 E-0.31696
G1 X149.265 Y156.066 E-0.12223
G1 E-0.04000 F2100.00000
G1 Z0.800 F10800.000
G1 X143.606 Y99.196
G1 Z0.200
G1 E0.80000 F2100.00000
G1 F1200
G1 X143.005 Y98.595 E0.02694
G1 X143.005 Y98.056 E0.01709
G1 X143.975 Y99.026 E0.04350
G1 X144.514 Y99.026 E0.01709
G1 X143.005 Y97.517 E0.06766
G1 X143.005 Y96.978 E0.01709
G1 X145.053 Y99.026 E0.09182
G1 X145.592 Y99.026 E0.01709
G1 X143.005 Y96.439 E0.11599
G1 X143.005 Y95.899 E0.01709
G1 X146.131 Y99.026 E0.14015
G1 X146.670 Y99.026 E0.01709
G1 X143.005 Y95.360 E0.16431
G1 X143.005 Y94.821 E0.01709
G1 X147.209 Y99.026 E0.18847
G1 X147.748 Y99.026 E0.01709
G1 X143.005 Y94.282 E0.21263
G1 X143.005 Y93.743 E0.01709
G1 X148.287 Y99.026 E0.23680
G1 X148.827 Y99.026 E0.01709
G1 X143.005 Y93.204 E0.26096
G1 X143.005 Y92.665 E0.01709
G1 X149.265 Y98.925 E0.28060
G1 X149.265 Y98.386 E0.01709
G1 X143.005 Y92.126 E0.28060
G1 X143.005 Y91.587 E0.01709
G1 X149.265 Y97.847 E0.28060
G1 X149.265 Y97.308 E0.01709
G1 X143.005 Y91.048 E0.28060
G1 X143.005 Y90.509 E0.01709
G1 X149.265 Y96.769 E0.28060
G1 X149.265 Y96.230 E0.01709
G1 X143.005 Y89.970 E0.28060
G1 X143.005 Y89.431 E0.01709
G1 X149.265 Y95.691 E0.28060
G1 X149.265 Y95.152 E0.01709
G1 X143.005 Y88.892 E0.28060
G1 X143.005 Y88.353 E0.01709
G1 X149.265 Y94.613 E0.28060
G1 X149.265 Y94.074 E0.01709
G1 X143.005 Y87.814 E0.28060
G1 X143.005 Y87.275 E0.01709
G1 X149.265 Y93.535 E0.28060
G1 X149.265 Y92.996 E0.01709
G1 X143.005 Y86.736 E0.28060
G1 X143.005 Y86.196 E0.01709
G1 X149.265 Y92.457 E0.28060
G1 X149.265 Y91.918 E0.01709
G1 X143.005 Y85.657 E0.28060
G1 X143.005 Y85.118 E0.01709
G1 X149.265 Y91.379 E0.28060
G1 X149.265 Y90.840 E0.01709
G1 X143.005 Y84.579 E0.28060
G1 X143.005 Y84.040 E0.01709
G1 X149.265 Y90.301 E0.28060
G1 X149.265 Y89.761 E0.01709
G1 X143.005 Y83.501 E0.28060
G1 X143.005 Y82.962 E0.01709
G1 X149.265 Y89.222 E0.28060
G1 X149.265 Y88.683 E0.01709
G1 X143.005 Y82.423 E0.28060
G1 X143.005 Y81.884 E0.01709
G1 X149.265 Y88.144 E0.28060
G1 X149.265 Y87.605 E0.01709
G1 X143.005 Y81.345 E0.28060
G1 X143.005 Y80.806 E0.01709
G1 X149.265 Y87.066 E0.28060
G1 X149.265 Y86.527 E0.01709
G1 X143.005 Y80.267 E0.28060
G1 X143.005 Y80.166 E0.00320
G1 X143.443 Y80.166 E0.01389
G1 X149.265 Y85.988 E0.26096
G1 X149.265 Y85.449 E0.01709
G1 X143.982 Y80.166 E0.23680
G1 X144.521 Y80.166 E0.01709
G1 X149.265 Y84.910 E0.21264
G1 X149.265 Y84.371 E0.01709
G1 X145.060 Y80.166 E0.18848
G1 X145.599 Y80.166 E0.01709
G1 X149.265 Y83.832 E0.16432
G1 X149.265 Y83.293 E0.01709
G1 X146.138 Y80.166 E0.14015
G1 X146.677 Y80.166 E0.01709
G1 X149.265 Y82.754 E0.11599
G1 X149.265 Y82.215 E0.01709
G1 X147.216 Y80.166 E0.09183
G1 X147.755 Y80.166 E0.01709
G1 X149.265 Y81.676 E0.06767
G1 X149.265 Y81.137 E0.01709
G1 X148.294 Y80.166 E0.04351
G1 X148.833 Y80.166 E0.01709
G1 X149.434 Y80.767 E0.02695
M106 S255
;BEFORE_LAYER_CHANGE
G92 E0.0
;0.4


G1 F8640
G1 X148.833 Y80.166 E-0.19634
G1 X148.294 Y80.166 E-0.12447
G1 X149.265 Y81.137 E-0.31696
G1 X149.265 Y81.666 E-0.12223
G1 E-0.04000 F2100.00000
G1 Z0.800 F10800.000
;AFTER_LAYER_CHANGE
;0.4
G1 X152.288 Y78.906
