; generated by Slic3r Prusa Edition 1.41.3+win64 on 2019-04-30 at 14:27:44

; 

; external perimeters extrusion width = 0.60mm
; perimeters extrusion width = 0.50mm
; infill extrusion width = 0.50mm
; solid infill extrusion width = 0.50mm
; top infill extrusion width = 0.45mm
; first layer extrusion width = 0.42mm

M73 P0 R31
M73 Q0 S32
M201 X1000 Y1000 Z1000 E5000 ; sets maximum accelerations, mm/sec^2
M203 X200 Y200 Z12 E120 ; sets maximum feedrates, mm/sec
M204 P1250 R1250 T1250 ; sets acceleration (P, T) and retract acceleration (R), mm/sec^2
M205 X8.00 Y8.00 Z0.40 E1.50 ; sets the jerk limits, mm/sec
M205 S0 T0 ; sets the minimum extruding and travel feed rate, mm/sec
M107
M115 U3.6.0 ; tell printer latest fw version
M83  ; extruder relative mode
M104 S215 ; set extruder temp
M140 S60 ; set bed temp
M190 S60 ; wait for bed temp
M109 S215 ; wait for extruder temp
G28 W ; home all without mesh bed level
G80 ; mesh bed leveling
G1 Y-3.0 F1000.0 ; go outside print area
G92 E0.0
G1 X60.0 E9.0  F1000.0 ; intro line
M73 Q0 S32
M73 P0 R31
G1 X100.0 E12.5  F1000.0 ; intro line
G92 E0.0
M221 S95
M900 K30 ; Filament gcode
G21 ; set units to millimeters
G90 ; use absolute coordinates
M83 ; use relative distances for extrusion
;BEFORE_LAYER_CHANGE
G92 E0.0
;0.2


G1 E-0.80000 F2100.00000
G1 Z0.600 F10800.000
;AFTER_LAYER_CHANGE
;0.2
G1 X32.392 Y74.018
G1 Z0.200
G1 E0.80000 F2100.00000
M204 S1000
G1 F1200
G1 X33.479 Y73.370 E0.03970
G1 X34.392 Y72.998 E0.03091
G1 X35.331 Y72.766 E0.03033
G1 X36.529 Y72.647 E0.03775
G1 X86.621 Y72.645 E1.57058
G1 X150.068 Y72.813 E1.98935
G1 X151.164 Y72.907 E0.03450
G1 X152.379 Y73.221 E0.03935
G1 X153.263 Y73.595 E0.03010
G1 X154.089 Y74.093 E0.03022
G1 X155.009 Y74.846 E0.03729
G1 X155.822 Y75.783 E0.03890
G1 X156.470 Y76.875 E0.03981
G1 X156.837 Y77.779 E0.03056
G1 X157.071 Y78.725 E0.03056
G1 X157.189 Y79.996 E0.04004
G1 X157.187 Y130.080 E1.57035
G1 X157.093 Y131.164 E0.03411
G1 X156.779 Y132.379 E0.03935
G1 X156.405 Y133.263 E0.03010
G1 X155.907 Y134.089 E0.03022
G1 X155.154 Y135.009 E0.03729
G1 X154.219 Y135.820 E0.03879
G1 X153.135 Y136.466 E0.03958
G1 X152.225 Y136.836 E0.03079
G1 X151.286 Y137.068 E0.03033
G1 X150.088 Y137.187 E0.03775
G1 X100.000 Y137.189 E1.57047
G1 X36.545 Y137.021 E1.98958
G1 X35.453 Y136.927 E0.03438
G1 X34.238 Y136.613 E0.03935
G1 X33.354 Y136.239 E0.03010
G1 X32.528 Y135.741 E0.03022
G1 X31.608 Y134.988 E0.03729
G1 X30.795 Y134.050 E0.03890
G1 X30.147 Y132.958 E0.03981
G1 X29.780 Y132.055 E0.03056
G1 X29.546 Y131.109 E0.03056
G1 X29.428 Y129.841 E0.03992
G1 X29.430 Y79.754 E1.57047
G1 X29.524 Y78.670 E0.03411
G1 X29.837 Y77.458 E0.03924
G1 X30.212 Y76.570 E0.03022
G1 X30.708 Y75.748 E0.03010
G1 X31.441 Y74.849 E0.03638
G1 X32.346 Y74.058 E0.03770
; PURGING FINISHED
G1 F8640
G1 X33.479 Y73.370 E-0.30600
G1 X34.392 Y72.998 E-0.22759
G1 X35.331 Y72.766 E-0.22337
G1 X35.344 Y72.764 E-0.00304
G1 E-0.04000 F2100.00000
G1 Z0.800 F10800.000
G1 X97.950 Y128.035
G1 Z0.200
G1 E0.80000 F2100.00000
G1 F1200
G1 X98.312 Y127.717 E0.01510
G1 X98.722 Y127.465 E0.01510
G1 X99.170 Y127.285 E0.01514
G1 X99.650 Y127.183 E0.01539
G1 X100.120 Y127.163 E0.01476
G1 X100.598 Y127.225 E0.01510
G1 X101.059 Y127.366 E0.01510
G1 X101.489 Y127.582 E0.01510
G1 X101.876 Y127.869 E0.01510
G1 X102.209 Y128.216 E0.01510
G1 X102.479 Y128.615 E0.01510
G1 X102.677 Y129.054 E0.01510
G1 X102.798 Y129.520 E0.01510
G1 X102.839 Y130.000 E0.01510
G1 X102.798 Y130.481 E0.01514
G1 X102.673 Y130.956 E0.01539
G1 X102.479 Y131.385 E0.01476
G1 X102.209 Y131.784 E0.01510
G1 X101.876 Y132.131 E0.01510
G1 X101.489 Y132.418 E0.01510
G1 X101.059 Y132.634 E0.01510
G1 X100.598 Y132.775 E0.01510
G1 X100.120 Y132.837 E0.01510
G1 X99.638 Y132.816 E0.01514
G1 X99.159 Y132.711 E0.01539
G1 X98.722 Y132.535 E0.01476
G1 X98.312 Y132.283 E0.01510
G1 X97.950 Y131.965 E0.01510
G1 X97.648 Y131.590 E0.01510
G1 X97.413 Y131.169 E0.01510
G1 X97.252 Y130.715 E0.01510
G1 X97.171 Y130.241 E0.01510
G1 X97.171 Y129.759 E0.01510
G1 X97.252 Y129.285 E0.01510
G1 X97.413 Y128.831 E0.01510
G1 X97.648 Y128.410 E0.01510
G1 X97.913 Y128.082 E0.01322
G1 X98.206 Y128.319 F10800.000
G1 F1200
G1 X98.537 Y128.022 E0.01395
G1 X98.892 Y127.803 E0.01309
G1 X99.280 Y127.647 E0.01310
G1 X99.697 Y127.559 E0.01338
G1 X100.104 Y127.541 E0.01277
G1 X100.518 Y127.594 E0.01309
G1 X100.918 Y127.717 E0.01309
G1 X101.290 Y127.905 E0.01309
G1 X101.626 Y128.153 E0.01309
G1 X101.915 Y128.454 E0.01309
G1 X102.148 Y128.800 E0.01309
G1 X102.320 Y129.180 E0.01309
G1 X102.425 Y129.584 E0.01309
G1 X102.461 Y130.000 E0.01309
G1 X102.425 Y130.416 E0.01310
G1 X102.316 Y130.829 E0.01338
G1 X102.148 Y131.200 E0.01277
G1 X101.915 Y131.546 E0.01309
G1 X101.626 Y131.847 E0.01309
G1 X101.290 Y132.095 E0.01309
G1 X100.918 Y132.283 E0.01309
G1 X100.518 Y132.406 E0.01309
G1 X100.104 Y132.459 E0.01309
G1 X99.687 Y132.441 E0.01310
G1 X99.270 Y132.349 E0.01338
G1 X98.892 Y132.197 E0.01277
G1 X98.537 Y131.978 E0.01309
G1 X98.223 Y131.703 E0.01309
G1 X97.961 Y131.378 E0.01309
G1 X97.758 Y131.014 E0.01309
G1 X97.619 Y130.620 E0.01309
G1 X97.548 Y130.209 E0.01309
G1 X97.548 Y129.791 E0.01309
G1 X97.619 Y129.380 E0.01309
G1 X97.758 Y128.986 E0.01309
G1 X97.961 Y128.622 E0.01309
G1 X98.168 Y128.366 E0.01033
G1 X98.091 Y127.936 F10800.000
G1 F8640
G1 X98.537 Y128.022 E-0.11643
G1 X98.892 Y127.803 E-0.09637
G1 X99.280 Y127.647 E-0.09647
G1 X99.697 Y127.559 E-0.09854
G1 X100.104 Y127.541 E-0.09407
G1 X100.518 Y127.594 E-0.09637
G1 X100.918 Y127.717 E-0.09637
G1 X101.170 Y127.844 E-0.06536
G1 E-0.04000 F2100.00000
G1 Z0.800 F10800.000
G1 X98.413 Y125.763
G1 Z0.200
G1 E0.80000 F2100.00000
G1 F1200
G1 X98.413 Y84.240 E1.30191
G1 X99.857 Y84.407 E0.04557
G1 X100.561 Y84.375 E0.02211
G1 X101.270 Y84.224 E0.02272
G1 X101.944 Y83.959 E0.02272
G1 X102.566 Y83.588 E0.02272
G1 X103.119 Y83.119 E0.02272
G1 X103.588 Y82.566 E0.02272
G1 X103.959 Y81.944 E0.02272
G1 X104.224 Y81.270 E0.02272
G1 X104.375 Y80.561 E0.02272
G1 X104.408 Y79.837 E0.02272
G1 X104.237 Y78.413 E0.04498
G1 X145.763 Y78.413 E1.30199
G1 X145.592 Y79.837 E0.04498
G1 X145.625 Y80.561 E0.02272
G1 X145.776 Y81.269 E0.02268
G1 X146.051 Y81.961 E0.02335
G1 X146.412 Y82.566 E0.02211
G1 X146.881 Y83.119 E0.02272
G1 X147.434 Y83.588 E0.02272
G1 X148.056 Y83.959 E0.02272
G1 X148.730 Y84.224 E0.02272
G1 X149.439 Y84.375 E0.02272
G1 X150.163 Y84.408 E0.02272
G1 X151.587 Y84.237 E0.04498
G1 X151.587 Y125.763 E1.30199
G1 X150.163 Y125.592 E0.04498
G1 X149.439 Y125.625 E0.02272
G1 X148.731 Y125.776 E0.02268
G1 X148.039 Y126.051 E0.02335
G1 X147.434 Y126.412 E0.02211
G1 X146.881 Y126.881 E0.02272
G1 X146.412 Y127.434 E0.02272
G1 X146.041 Y128.056 E0.02272
G1 X145.776 Y128.730 E0.02272
G1 X145.625 Y129.439 E0.02272
G1 X145.592 Y130.163 E0.02272
G1 X145.763 Y131.587 E0.04498
G1 X104.240 Y131.587 E1.30191
G1 X104.407 Y130.143 E0.04557
G1 X104.375 Y129.439 E0.02211
G1 X104.224 Y128.730 E0.02272
G1 X103.959 Y128.056 E0.02272
G1 X103.588 Y127.434 E0.02272
G1 X103.119 Y126.881 E0.02272
G1 X102.566 Y126.412 E0.02272
G1 X101.944 Y126.041 E0.02272
G1 X101.270 Y125.776 E0.02272
G1 X100.561 Y125.625 E0.02272
G1 X99.837 Y125.592 E0.02272
G1 X98.472 Y125.755 E0.04310
G1 X98.790 Y125.338 F10800.000
G1 F1200
G1 X98.790 Y84.663 E1.27532
G1 X99.843 Y84.785 E0.03325
G1 X100.609 Y84.750 E0.02404
G1 X101.379 Y84.587 E0.02467
G1 X102.111 Y84.299 E0.02467
G1 X102.786 Y83.895 E0.02467
G1 X103.387 Y83.387 E0.02467
G1 X103.895 Y82.786 E0.02467
G1 X104.299 Y82.111 E0.02467
G1 X104.587 Y81.379 E0.02467
G1 X104.750 Y80.609 E0.02467
G1 X104.786 Y79.823 E0.02467
G1 X104.662 Y78.790 E0.03263
G1 X145.338 Y78.790 E1.27535
G1 X145.214 Y79.823 E0.03263
G1 X145.250 Y80.609 E0.02467
G1 X145.413 Y81.378 E0.02465
G1 X145.711 Y82.128 E0.02530
G1 X146.105 Y82.786 E0.02404
G1 X146.613 Y83.387 E0.02467
G1 X147.214 Y83.895 E0.02467
G1 X147.889 Y84.299 E0.02467
G1 X148.621 Y84.587 E0.02467
G1 X149.391 Y84.750 E0.02467
G1 X150.177 Y84.786 E0.02467
G1 X151.210 Y84.662 E0.03263
G1 X151.210 Y125.338 E1.27535
G1 X150.177 Y125.214 E0.03263
G1 X149.391 Y125.250 E0.02467
G1 X148.622 Y125.413 E0.02465
G1 X147.872 Y125.711 E0.02530
G1 X147.214 Y126.105 E0.02404
G1 X146.613 Y126.613 E0.02467
G1 X146.105 Y127.214 E0.02467
G1 X145.701 Y127.889 E0.02467
G1 X145.413 Y128.621 E0.02467
G1 X145.250 Y129.391 E0.02467
G1 X145.214 Y130.177 E0.02467
G1 X145.338 Y131.210 E0.03263
G1 X104.663 Y131.210 E1.27532
G1 X104.785 Y130.157 E0.03325
G1 X104.750 Y129.391 E0.02404
G1 X104.587 Y128.621 E0.02467
G1 X104.299 Y127.889 E0.02467
G1 X103.895 Y127.214 E0.02467
G1 X103.387 Y126.613 E0.02467
G1 X102.786 Y126.105 E0.02467
G1 X102.111 Y125.701 E0.02467
G1 X101.379 Y125.413 E0.02467
G1 X100.609 Y125.250 E0.02467
G1 X99.823 Y125.214 E0.02467
G1 X98.850 Y125.331 E0.03075
G1 X98.390 Y125.344 F10800.000
G1 F8640
G1 X98.845 Y122.039 E-0.76000
G1 E-0.04000 F2100.00000
G1 Z0.800 F10800.000
G1 X100.120 Y82.837
G1 Z0.200
G1 E0.80000 F2100.00000
G1 F1200
G1 X99.639 Y82.816 E0.01510
G1 X99.169 Y82.715 E0.01510
G1 X98.722 Y82.535 E0.01510
G1 X98.312 Y82.283 E0.01510
G1 X97.950 Y81.965 E0.01510
G1 X97.648 Y81.590 E0.01510
G1 X97.413 Y81.169 E0.01510
G1 X97.252 Y80.715 E0.01510
G1 X97.171 Y80.241 E0.01510
G1 X97.171 Y79.759 E0.01510
G1 X97.252 Y79.285 E0.01510
G1 X97.413 Y78.831 E0.01510
G1 X97.648 Y78.410 E0.01510
G1 X97.950 Y78.035 E0.01510
G1 X98.312 Y77.717 E0.01510
G1 X98.722 Y77.465 E0.01510
G1 X99.170 Y77.285 E0.01514
G1 X99.650 Y77.183 E0.01539
G1 X100.120 Y77.163 E0.01476
G1 X100.598 Y77.225 E0.01510
G1 X101.059 Y77.366 E0.01510
G1 X101.489 Y77.582 E0.01510
G1 X101.876 Y77.869 E0.01510
G1 X102.209 Y78.216 E0.01510
G1 X102.479 Y78.615 E0.01510
G1 X102.677 Y79.054 E0.01510
G1 X102.798 Y79.520 E0.01510
G1 X102.839 Y80.000 E0.01510
G1 X102.798 Y80.481 E0.01514
G1 X102.673 Y80.956 E0.01539
G1 X102.479 Y81.385 E0.01476
G1 X102.209 Y81.784 E0.01510
G1 X101.876 Y82.131 E0.01510
G1 X101.489 Y82.418 E0.01510
G1 X101.059 Y82.634 E0.01510
G1 X100.598 Y82.775 E0.01510
G1 X100.180 Y82.829 E0.01322
G1 X100.132 Y82.455 F10800.000
G1 F1200
G1 X99.687 Y82.441 E0.01395
G1 X99.279 Y82.353 E0.01309
G1 X98.892 Y82.197 E0.01309
G1 X98.537 Y81.978 E0.01309
G1 X98.223 Y81.703 E0.01309
G1 X97.961 Y81.378 E0.01309
G1 X97.758 Y81.014 E0.01309
G1 X97.619 Y80.620 E0.01309
G1 X97.548 Y80.209 E0.01309
G1 X97.548 Y79.791 E0.01309
G1 X97.619 Y79.380 E0.01309
G1 X97.758 Y78.986 E0.01309
G1 X97.961 Y78.622 E0.01309
G1 X98.223 Y78.297 E0.01309
G1 X98.537 Y78.022 E0.01309
G1 X98.892 Y77.803 E0.01309
G1 X99.280 Y77.647 E0.01310
G1 X99.697 Y77.559 E0.01338
G1 X100.104 Y77.541 E0.01277
G1 X100.518 Y77.594 E0.01309
G1 X100.918 Y77.717 E0.01309
G1 X101.290 Y77.905 E0.01309
G1 X101.626 Y78.153 E0.01309
G1 X101.915 Y78.454 E0.01309
G1 X102.148 Y78.800 E0.01309
G1 X102.320 Y79.180 E0.01309
G1 X102.425 Y79.584 E0.01309
G1 X102.461 Y80.000 E0.01309
G1 X102.425 Y80.416 E0.01310
G1 X102.316 Y80.829 E0.01338
G1 X102.148 Y81.200 E0.01277
G1 X101.915 Y81.546 E0.01309
G1 X101.626 Y81.847 E0.01309
G1 X101.290 Y82.095 E0.01309
G1 X100.918 Y82.283 E0.01309
G1 X100.518 Y82.406 E0.01309
G1 X100.192 Y82.447 E0.01033
G1 X99.950 Y82.811 F10800.000
G1 F8640
G1 X99.687 Y82.441 E-0.11643
G1 X99.279 Y82.353 E-0.09637
G1 X98.892 Y82.197 E-0.09637
G1 X98.537 Y81.978 E-0.09637
G1 X98.223 Y81.703 E-0.09637
G1 X97.961 Y81.378 E-0.09637
G1 X97.758 Y81.014 E-0.09637
G1 X97.663 Y80.747 E-0.06533
G1 E-0.04000 F2100.00000
G1 Z0.800 F10800.000
G1 X147.171 Y80.241
G1 Z0.200
G1 E0.80000 F2100.00000
G1 F1200
G1 X147.171 Y79.759 E0.01510
G1 X147.252 Y79.285 E0.01510
G1 X147.413 Y78.831 E0.01510
G1 X147.648 Y78.410 E0.01510
G1 X147.950 Y78.035 E0.01510
G1 X148.312 Y77.717 E0.01510
G1 X148.722 Y77.465 E0.01510
G1 X149.170 Y77.285 E0.01514
G1 X149.650 Y77.183 E0.01539
G1 X150.120 Y77.163 E0.01476
G1 X150.598 Y77.225 E0.01510
G1 X151.059 Y77.366 E0.01510
G1 X151.489 Y77.582 E0.01510
G1 X151.876 Y77.869 E0.01510
G1 X152.209 Y78.216 E0.01510
G1 X152.479 Y78.615 E0.01510
G1 X152.677 Y79.054 E0.01510
G1 X152.798 Y79.520 E0.01510
G1 X152.839 Y80.000 E0.01510
G1 X152.798 Y80.480 E0.01510
G1 X152.677 Y80.946 E0.01510
G1 X152.479 Y81.385 E0.01510
G1 X152.209 Y81.784 E0.01510
G1 X151.876 Y82.131 E0.01510
G1 X151.489 Y82.418 E0.01510
G1 X151.059 Y82.634 E0.01510
G1 X150.598 Y82.775 E0.01510
G1 X150.120 Y82.837 E0.01510
G1 X149.639 Y82.816 E0.01510
G1 X149.169 Y82.715 E0.01510
G1 X148.722 Y82.535 E0.01510
G1 X148.312 Y82.283 E0.01510
G1 X147.950 Y81.965 E0.01510
G1 X147.648 Y81.590 E0.01510
G1 X147.413 Y81.169 E0.01510
G1 X147.252 Y80.715 E0.01510
G1 X147.181 Y80.300 E0.01322
G1 X147.553 Y80.236 F10800.000
G1 F1200
G1 X147.548 Y79.791 E0.01395
G1 X147.619 Y79.380 E0.01309
G1 X147.758 Y78.986 E0.01309
G1 X147.961 Y78.622 E0.01309
G1 X148.223 Y78.297 E0.01309
G1 X148.537 Y78.022 E0.01309
G1 X148.892 Y77.803 E0.01309
G1 X149.280 Y77.647 E0.01310
G1 X149.697 Y77.559 E0.01338
G1 X150.104 Y77.541 E0.01277
G1 X150.518 Y77.594 E0.01309
G1 X150.918 Y77.717 E0.01309
G1 X151.290 Y77.905 E0.01309
G1 X151.626 Y78.153 E0.01309
G1 X151.915 Y78.454 E0.01309
G1 X152.148 Y78.800 E0.01309
G1 X152.320 Y79.180 E0.01309
G1 X152.425 Y79.584 E0.01309
G1 X152.461 Y80.000 E0.01309
G1 X152.425 Y80.416 E0.01309
G1 X152.320 Y80.820 E0.01309
G1 X152.148 Y81.200 E0.01309
G1 X151.915 Y81.546 E0.01309
G1 X151.626 Y81.847 E0.01309
G1 X151.290 Y82.095 E0.01309
G1 X150.918 Y82.283 E0.01309
G1 X150.518 Y82.406 E0.01309
G1 X150.104 Y82.459 E0.01309
G1 X149.687 Y82.441 E0.01309
G1 X149.279 Y82.353 E0.01309
G1 X148.892 Y82.197 E0.01309
G1 X148.537 Y81.978 E0.01309
G1 X148.223 Y81.703 E0.01309
G1 X147.961 Y81.378 E0.01309
G1 X147.758 Y81.014 E0.01309
G1 X147.619 Y80.620 E0.01309
G1 X147.563 Y80.295 E0.01033
G1 X147.189 Y80.069 F10800.000
G1 F8640
G1 X147.548 Y79.791 E-0.11643
G1 X147.619 Y79.380 E-0.09637
G1 X147.758 Y78.986 E-0.09637
G1 X147.961 Y78.622 E-0.09637
G1 X148.223 Y78.297 E-0.09637
G1 X148.537 Y78.022 E-0.09637
G1 X148.892 Y77.803 E-0.09637
G1 X149.155 Y77.697 E-0.06534
G1 E-0.04000 F2100.00000
G1 Z0.800 F10800.000
G1 X149.639 Y127.184
G1 Z0.200
G1 E0.80000 F2100.00000
G1 F1200
G1 X150.122 Y127.163 E0.01514
G1 X150.608 Y127.228 E0.01539
G1 X151.059 Y127.366 E0.01476
G1 X151.489 Y127.582 E0.01510
G1 X151.876 Y127.869 E0.01510
G1 X152.209 Y128.216 E0.01510
G1 X152.479 Y128.615 E0.01510
G1 X152.677 Y129.054 E0.01510
G1 X152.798 Y129.520 E0.01510
G1 X152.839 Y130.000 E0.01510
G1 X152.798 Y130.480 E0.01510
G1 X152.677 Y130.947 E0.01514
G1 X152.473 Y131.394 E0.01539
G1 X152.209 Y131.784 E0.01476
G1 X151.876 Y132.131 E0.01510
G1 X151.489 Y132.418 E0.01510
G1 X151.059 Y132.634 E0.01510
G1 X150.598 Y132.775 E0.01510
G1 X150.120 Y132.837 E0.01510
G1 X149.639 Y132.816 E0.01510
G1 X149.169 Y132.715 E0.01510
G1 X148.721 Y132.535 E0.01514
G1 X148.304 Y132.276 E0.01539
G1 X147.950 Y131.965 E0.01476
G1 X147.648 Y131.590 E0.01510
G1 X147.413 Y131.169 E0.01510
G1 X147.252 Y130.715 E0.01510
G1 X147.171 Y130.241 E0.01510
G1 X147.171 Y129.759 E0.01510
G1 X147.252 Y129.285 E0.01510
G1 X147.413 Y128.829 E0.01514
G1 X147.654 Y128.402 E0.01539
G1 X147.950 Y128.035 E0.01476
G1 X148.312 Y127.717 E0.01510
G1 X148.722 Y127.465 E0.01510
G1 X149.169 Y127.285 E0.01510
G1 X149.581 Y127.196 E0.01322
G1 X149.660 Y127.565 F10800.000
G1 F1200
G1 X150.105 Y127.541 E0.01396
G1 X150.528 Y127.597 E0.01338
G1 X150.918 Y127.717 E0.01277
G1 X151.290 Y127.905 E0.01309
G1 X151.626 Y128.153 E0.01309
G1 X151.915 Y128.454 E0.01309
G1 X152.148 Y128.800 E0.01309
G1 X152.320 Y129.180 E0.01309
G1 X152.425 Y129.584 E0.01309
G1 X152.461 Y130.000 E0.01309
G1 X152.425 Y130.416 E0.01309
G1 X152.320 Y130.820 E0.01310
G1 X152.143 Y131.208 E0.01338
G1 X151.915 Y131.546 E0.01277
G1 X151.626 Y131.847 E0.01309
G1 X151.290 Y132.095 E0.01309
G1 X150.918 Y132.283 E0.01309
G1 X150.518 Y132.406 E0.01309
G1 X150.104 Y132.459 E0.01309
G1 X149.687 Y132.441 E0.01309
G1 X149.279 Y132.353 E0.01309
G1 X148.892 Y132.197 E0.01310
G1 X148.529 Y131.972 E0.01338
G1 X148.223 Y131.703 E0.01277
G1 X147.961 Y131.378 E0.01309
G1 X147.758 Y131.014 E0.01309
G1 X147.619 Y130.620 E0.01309
G1 X147.548 Y130.209 E0.01309
